public/backgroundMobile.svg

<svg width="375" height="812" viewBox="0 0 375 812" fill="none" xmlns="http://www.w3.org/2000/svg">
<g clip-path="url(#clip0_61385:181)">
<rect width="375" height="812" fill="#202024"/>
<circle cx="370" cy="115" r="300" transform="rotate(-180 370 115)" fill="url(#paint0_radial_61385:181)"/>
<circle cx="5.00001" cy="115" r="300" transform="rotate(-180 5.00001 115)" fill="url(#paint1_radial_61385:181)"/>
<circle cx="187.5" cy="234.5" r="157.5" transform="rotate(-180 187.5 234.5)" fill="url(#paint2_radial_61385:181)"/>
<mask id="mask0_61385:181" style="mask-type:alpha" maskUnits="userSpaceOnUse" x="0" y="0" width="375" height="812">
<rect width="375" height="812" fill="#202024"/>
</mask>
<g mask="url(#mask0_61385:181)">
<path d="M375 168.101V-310.699L187.478 -418.486L-0.0446777 -310.699V168.101L187.478 275.894L375 168.101Z" fill="url(#paint3_linear_61385:181)"/>
<g style="mix-blend-mode:luminosity" opacity="0.4">
<path d="M1.83663 61.3931V168.797L95.1275 222.505L188.418 168.797V61.3931L95.1275 7.68577L1.83663 61.3931Z" fill="url(#paint4_linear_61385:181)"/>
<path d="M1.83663 -46.0166V61.3877L95.1275 115.095L188.418 61.3877V-46.0166L95.1275 -99.7239L1.83663 -46.0166Z" fill="url(#paint5_linear_61385:181)"/>
<path d="M281.709 -99.6961V7.70821L188.418 61.4155L95.1274 7.70821V-99.6961L188.418 -153.403L281.709 -99.6961Z" fill="url(#paint6_linear_61385:181)"/>
<path d="M188.418 168.797V61.3927L281.709 7.68539L375 61.3927V168.797L281.709 222.504L188.418 168.797Z" fill="url(#paint7_linear_61385:181)"/>
<path d="M375 -46.0166V61.3877L281.709 115.095L188.418 61.3877V-46.0166L281.709 -99.7239L375 -46.0166Z" fill="url(#paint8_linear_61385:181)"/>
<path d="M281.709 222.527V115.123L188.418 61.4155L95.1274 115.123L95.1274 222.527L188.418 276.235L281.709 222.527Z" fill="url(#paint9_linear_61385:181)"/>
</g>
</g>
</g>
<defs>
<radialGradient id="paint0_radial_61385:181" cx="0" cy="0" r="1" gradientUnits="userSpaceOnUse" gradientTransform="translate(370 115) rotate(90) scale(300)">
<stop stop-color="#FFCD1E"/>
<stop offset="1" stop-color="#121214" stop-opacity="0"/>
</radialGradient>
<radialGradient id="paint1_radial_61385:181" cx="0" cy="0" r="1" gradientUnits="userSpaceOnUse" gradientTransform="translate(5 115) rotate(90) scale(300)">
<stop stop-color="#FF1E1E"/>
<stop offset="1" stop-color="#121214" stop-opacity="0"/>
</radialGradient>
<radialGradient id="paint2_radial_61385:181" cx="0" cy="0" r="1" gradientUnits="userSpaceOnUse" gradientTransform="translate(187.5 234.5) rotate(90) scale(157.5)">
<stop stop-color="#3FD1FF"/>
<stop offset="1" stop-color="#121214" stop-opacity="0"/>
</radialGradient>
<linearGradient id="paint3_linear_61385:181" x1="-67.9497" y1="58.9385" x2="436.115" y2="232.357" gradientUnits="userSpaceOnUse">
<stop stop-color="#FF1E1E"/>
<stop offset="1" stop-color="#FFCD1E"/>
</linearGradient>
<linearGradient id="paint4_linear_61385:181" x1="95.1275" y1="217.565" x2="2.23833" y2="59.047" gradientUnits="userSpaceOnUse">
<stop stop-color="#E2E557"/>
<stop offset="1" stop-color="#FF008E" stop-opacity="0"/>
</linearGradient>
<linearGradient id="paint5_linear_61385:181" x1="95.1275" y1="110.155" x2="2.23831" y2="-48.3627" gradientUnits="userSpaceOnUse">
<stop stop-color="#E2E557"/>
<stop offset="1" stop-color="#FF008E" stop-opacity="0"/>
</linearGradient>
<linearGradient id="paint6_linear_61385:181" x1="95.1275" y1="-105.732" x2="281.421" y2="6.68569" gradientUnits="userSpaceOnUse">
<stop stop-color="#FF008E" stop-opacity="0"/>
<stop offset="1" stop-color="#FFCD1E"/>
</linearGradient>
<linearGradient id="paint7_linear_61385:181" x1="375" y1="174.833" x2="188.706" y2="62.4152" gradientUnits="userSpaceOnUse">
<stop stop-color="#FF008E" stop-opacity="0"/>
<stop offset="1" stop-color="#FFCD1E"/>
</linearGradient>
<linearGradient id="paint8_linear_61385:181" x1="281.709" y1="110.155" x2="374.598" y2="-48.3627" gradientUnits="userSpaceOnUse">
<stop stop-color="#E2E557"/>
<stop offset="1" stop-color="#FF008E" stop-opacity="0"/>
</linearGradient>
<linearGradient id="paint9_linear_61385:181" x1="188.418" y1="66.3552" x2="281.307" y2="224.873" gradientUnits="userSpaceOnUse">
<stop stop-color="#E2E557"/>
<stop offset="1" stop-color="#FF008E" stop-opacity="0"/>
</linearGradient>
<clipPath id="clip0_61385:181">
<rect width="375" height="812" fill="white"/>
</clipPath>
</defs>
</svg>

<?xml version="1.0" encoding="UTF-8" standalone="no"?><!DOCTYPE svg PUBLIC "-//W3C//DTD SVG 1.1//EN" "http://www.w3.org/Graphics/SVG/1.1/DTD/svg11.dtd"><svg width="375px" height="100%" viewBox="0 0 375 812" version="1.1" xmlns="http://www.w3.org/2000/svg" xmlns:xlink="http://www.w3.org/1999/xlink" xml:space="preserve" xmlns:serif="http://www.serif.com/" style="fill-rule:evenodd;clip-rule:evenodd;stroke-linejoin:round;stroke-miterlimit:2;"><g><rect x="0" y="0" width="375" height="812" style="fill:#202024;"/><circle cx="370" cy="115" r="300" style="fill:url(#_Radial1);"/><circle cx="5" cy="115" r="300" style="fill:url(#_Radial2);"/><circle cx="187.5" cy="234.5" r="157.5" style="fill:url(#_Radial3);"/><g><path d="M375,168.101l0,-478.8l-187.522,-107.787l-187.523,107.787l0,478.8l187.523,107.793l187.522,-107.793Z" style="fill:url(#_Linear4);fill-rule:nonzero;"/><g opacity="0.4"><path d="M1.837,61.393l-0,107.404l93.29,53.708l93.291,-53.708l0,-107.404l-93.291,-53.707l-93.29,53.707Z" style="fill:url(#_Linear5);fill-rule:nonzero;"/><path d="M1.837,-46.017l-0,107.405l93.29,53.707l93.291,-53.707l0,-107.405l-93.291,-53.707l-93.29,53.707Z" style="fill:url(#_Linear6);fill-rule:nonzero;"/><path d="M281.709,-99.696l0,107.404l-93.291,53.708l-93.291,-53.708l0,-107.404l93.291,-53.707l93.291,53.707Z" style="fill:url(#_Linear7);fill-rule:nonzero;"/><path d="M188.418,168.797l0,-107.404l93.291,-53.708l93.291,53.708l0,107.404l-93.291,53.707l-93.291,-53.707Z" style="fill:url(#_Linear8);fill-rule:nonzero;"/><path d="M375,-46.017l0,107.405l-93.291,53.707l-93.291,-53.707l0,-107.405l93.291,-53.707l93.291,53.707Z" style="fill:url(#_Linear9);fill-rule:nonzero;"/><path d="M281.709,222.527l0,-107.404l-93.291,-53.708l-93.291,53.708l0,107.404l93.291,53.708l93.291,-53.708Z" style="fill:url(#_Linear10);fill-rule:nonzero;"/></g></g></g><defs><radialGradient id="_Radial1" cx="0" cy="0" r="1" gradientUnits="userSpaceOnUse" gradientTransform="matrix(-1.14857e-13,-300,300,-1.14857e-13,370,115)"><stop offset="0" style="stop-color:#ffcd1e;stop-opacity:1"/><stop offset="1" style="stop-color:#121214;stop-opacity:0"/></radialGradient><radialGradient id="_Radial2" cx="0" cy="0" r="1" gradientUnits="userSpaceOnUse" gradientTransform="matrix(-1.14857e-13,-300,300,-1.14857e-13,5.00002,115)"><stop offset="0" style="stop-color:#ff1e1e;stop-opacity:1"/><stop offset="1" style="stop-color:#121214;stop-opacity:0"/></radialGradient><radialGradient id="_Radial3" cx="0" cy="0" r="1" gradientUnits="userSpaceOnUse" gradientTransform="matrix(-6.03e-14,-157.5,157.5,-6.03e-14,187.5,234.5)"><stop offset="0" style="stop-color:#3fd1ff;stop-opacity:1"/><stop offset="1" style="stop-color:#121214;stop-opacity:0"/></radialGradient><linearGradient id="_Linear4" x1="0" y1="0" x2="1" y2="0" gradientUnits="userSpaceOnUse" gradientTransform="matrix(504.065,173.418,-173.418,504.065,-67.9497,58.9385)"><stop offset="0" style="stop-color:#ff1e1e;stop-opacity:1"/><stop offset="1" style="stop-color:#ffcd1e;stop-opacity:1"/></linearGradient><linearGradient id="_Linear5" x1="0" y1="0" x2="1" y2="0" gradientUnits="userSpaceOnUse" gradientTransform="matrix(-92.8892,-158.518,158.518,-92.8892,95.1275,217.565)"><stop offset="0" style="stop-color:#e2e557;stop-opacity:1"/><stop offset="1" style="stop-color:#ff008e;stop-opacity:0"/></linearGradient><linearGradient id="_Linear6" x1="0" y1="0" x2="1" y2="0" gradientUnits="userSpaceOnUse" gradientTransform="matrix(-92.8892,-158.518,158.518,-92.8892,95.1275,110.155)"><stop offset="0" style="stop-color:#e2e557;stop-opacity:1"/><stop offset="1" style="stop-color:#ff008e;stop-opacity:0"/></linearGradient><linearGradient id="_Linear7" x1="0" y1="0" x2="1" y2="0" gradientUnits="userSpaceOnUse" gradientTransform="matrix(186.293,112.418,-112.418,186.293,95.1275,-105.732)"><stop offset="0" style="stop-color:#ff008e;stop-opacity:0"/><stop offset="1" style="stop-color:#ffcd1e;stop-opacity:1"/></linearGradient><linearGradient id="_Linear8" x1="0" y1="0" x2="1" y2="0" gradientUnits="userSpaceOnUse" gradientTransform="matrix(-186.294,-112.418,112.418,-186.294,375,174.833)"><stop offset="0" style="stop-color:#ff008e;stop-opacity:0"/><stop offset="1" style="stop-color:#ffcd1e;stop-opacity:1"/></linearGradient><linearGradient id="_Linear9" x1="0" y1="0" x2="1" y2="0" gradientUnits="userSpaceOnUse" gradientTransform="matrix(92.889,-158.518,158.518,92.889,281.709,110.155)"><stop offset="0" style="stop-color:#e2e557;stop-opacity:1"/><stop offset="1" style="stop-color:#ff008e;stop-opacity:0"/></linearGradient><linearGradient id="_Linear10" x1="0" y1="0" x2="1" y2="0" gradientUnits="userSpaceOnUse" gradientTransform="matrix(92.889,158.518,-158.518,92.889,188.418,66.3552)"><stop offset="0" style="stop-color:#e2e557;stop-opacity:1"/><stop offset="1" style="stop-color:#ff008e;stop-opacity:0"/></linearGradient></defs></svg>
